X: 121003
P: Same figure.
M: 2/4
L: 1/16
K: D
[|\
vd3ve uf2vf2 | ug2a2 f4 |\
vd3ve uf2vf2 | ug2a2 f4 |\
ve4 ud3uB | vc2 ue4 ua2 |\
^g2f2e2d2 | c6 z2 |\
ve4 ud3uB | vc2 ue4 ua2 |\
^g2f2d2B2 | A8 & A2AA A2A2 :|


